X:1
T:Mazurka
A:France 
F:http://simonwascher.info/
Z:abc transcription Simon Wascher
M:3/4
L:1/8
K:G
DGB |\
d2de dc | B2d2cB | A3c BA | B2GD GB |
d2de dc | B2d2cB | A3c BA | G3 :|
|: zGF |\
E3G FE | D4G2 | A3c BA | G4GF |
E3G FE | D4G2 | A3c BA | G3 :|
%%wordsfont Times-Italic 11pt
W:aus Simon Waschers TradArchiv
